icon/fa/face-laugh-squint.svg

<svg xmlns="http://www.w3.org/2000/svg" viewBox="0 0 512 512"><!--! Font Awesome Free 6.1.2 by @fontawesome - https://fontawesome.com License - https://fontawesome.com/license/free (Icons: CC BY 4.0, Fonts: SIL OFL 1.1, Code: MIT License) Copyright 2022 Fonticons, Inc.--><path d="M0 256C0 114.6 114.6 0 256 0s256 114.6 256 256-114.6 256-256 256S0 397.4 0 256zm256 176c76.1 0 140.2-50 159.2-117.9 3.9-13.7-7.4-26.1-21.6-26.1H118.4c-14.2 0-25.48 12.4-21.64 26.1C115.8 382 179.9 432 256 432zM133.5 114.7c-7.9-4.3-17.5 1.5-17.5 10.4 0 2.8.1 5.5 2.8 7.7l36 43.2-36 43.2c-2.7 2.2-2.8 4.9-2.8 7.7 0 8.9 9.6 14.7 17.5 10.4l89.9-47.9c10.7-5.7 10.7-21.1 0-26.8l-89.9-47.9zM396 125.1c0-8.9-9.6-14.7-17.5-10.4l-89.9 47.9c-10.7 5.7-10.7 21.1 0 26.8l89.9 47.9c7.9 4.3 17.5-1.5 17.5-10.4 0-2.8-1-5.5-2.8-7.7l-36-43.2 36-43.2c1.8-2.2 2.8-4.9 2.8-7.7z"/></svg>

<svg xmlns="http://www.w3.org/2000/svg" viewBox="0 0 512 512" height="1em" width="1em">
<!--! Font Awesome Free 6.1.2 by @fontawesome - https://fontawesome.com License - https://fontawesome.com/license/free (Icons: CC BY 4.0, Fonts: SIL OFL 1.1, Code: MIT License) Copyright 2022 Fonticons, Inc.-->
  <path d="M0 256C0 114.6 114.6 0 256 0C397.4 0 512 114.6 512 256C512 397.4 397.4 512 256 512C114.6 512 0 397.4 0 256zM256 432C332.1 432 396.2 382 415.2 314.1C419.1 300.4 407.8 288 393.6 288H118.4C104.2 288 92.92 300.4 96.76 314.1C115.8 382 179.9 432 256 432V432zM133.5 114.7C125.6 110.4 116 116.2 116 125.1C116 127.9 116.1 130.6 118.8 132.8L154.8 176L118.8 219.2C116.1 221.4 116 224.1 116 226.9C116 235.8 125.6 241.6 133.5 237.3L223.4 189.4C234.1 183.7 234.1 168.3 223.4 162.6L133.5 114.7zM396 125.1C396 116.2 386.4 110.4 378.5 114.7L288.6 162.6C277.9 168.3 277.9 183.7 288.6 189.4L378.5 237.3C386.4 241.6 396 235.8 396 226.9C396 224.1 395 221.4 393.2 219.2L357.2 176L393.2 132.8C395 130.6 396 127.9 396 125.1V125.1z"/>
</svg>
